X:1
T:Ranzo
B:Hugill, Stan, (1969), Shanties and Sailors Songs, London, Herbert Jenkins
Z:Stan Hugill
F:http://www.folkinfo.org/songs
M:2/4  
L:1/16  
K:Am
d4 |B2 d2 c2 B2 |(A2G2) B4 |A2 A2 A4 | B2 A4
w:Oooh! poor ol' Reu-ben Ran-*zo, Ran-zo, boys, Ran-zo!
BA |G2 A2 G2 E2 |E4 D4 |G2 B2 d4 | A2 G2 |]
w:O-oh! poor ol' Reu-ben Ran-zo, Ran-zo, boys, Ran-zo!